src/images/photo-black-18dp.svg

<svg height="18" viewBox="0 0 24 24" width="18" xmlns="http://www.w3.org/2000/svg"><path d="m0 0h24v24h-24z" fill="none"/><path d="m19 5h-14v14h14zm-13 12 3-3.86 2.14 2.58 3-3.87 3.86 5.15z" opacity=".3"/><path d="m5 21h14c1.1 0 2-.9 2-2v-14c0-1.1-.9-2-2-2h-14c-1.1 0-2 .9-2 2v14c0 1.1.9 2 2 2zm0-16h14v14h-14zm6.14 10.72-2.14-2.58-3 3.86h12l-3.86-5.14z"/></svg>

<svg xmlns="http://www.w3.org/2000/svg" viewBox="0 0 24 24" fill="black" width="18px" height="18px"><path d="M0 0h24v24H0V0z" fill="none"/><path d="M19 5H5v14h14V5zM6 17l3-3.86 2.14 2.58 3-3.87L18 17H6z" opacity=".3"/><path d="M5 21h14c1.1 0 2-.9 2-2V5c0-1.1-.9-2-2-2H5c-1.1 0-2 .9-2 2v14c0 1.1.9 2 2 2zM5 5h14v14H5V5zm6.14 10.72L9 13.14 6 17h12l-3.86-5.14z"/></svg>
